X: 12
T: Swallow's Nest, The
I: Swallow's Nest, The	J-57	D	jig	Set 45
M: 6/8
R: jig
K: D
A/c/| "D"dcd fdc| dAG FED| FAd "A"cAF| E=CE "A7"GFE|
      "D"DFA dAF| "Em"EGB "A7"efg| "D"f/f/df "A7"gec| edc "D"d2 :|
|:f/g/| "D"a>ba fdf| "A7"gag ecA| "D"fef "A7"gfg| ecA GFE|
      "D"DFA dAF| "Em"EGB "A7"efg |1 "D"f/f/df "A7"gec| edc "D"d2 :|2      "D"f2f "A"gec| edc "D"d2 :|
%%text Roaring Jelly J-57

%%vskip 6pt

